common/app/assets/images/global/share-email--white.svg

<svg xmlns="http://www.w3.org/2000/svg" width="32" height="32" viewBox="-2 -2 32 32"><path fill="#fff" d="M20.2 11.7l-.4-.4-5.7 2.7-5.7-2.7-.3.4 6 4.9 6.1-4.9zm1.2-4.7h-14.9l-1.5 2.5v9.3l1.6 1.2h14.9l1.5-1.2v-9.3l-1.6-2.5zm-.5 10.8h-13.8v-8.6h13.8v8.6z"/></svg>

<svg xmlns="http://www.w3.org/2000/svg" width="32" height="32" viewBox="-2 -2 32 32"><path fill="#fff" d="M20.2 11.7l-.4-.4-5.7 2.7-5.7-2.7-.3.4 6 4.9 6.1-4.9zM21.4 7H6.5L5 9.5v9.3L6.6 20h14.9l1.5-1.2V9.5L21.4 7zm-.5 10.8H7.1V9.2h13.8v8.6z"/></svg>
